X:1
T:Is He Yours?
T:Is He Yours?
T:Robert Harkness
T:Ada Ruth Habershon, 1905
T:Public Domain Courtesy of the Cyber Hymnal™
T:Public Domain Courtesy of the Cyber Hymnal™
C:Robert Harkness
Z:Public Domain
Z:Courtesy of the Cyber Hymnal™
%%score ( 1 2 ) ( 3 4 ) ( 5 6 )
L:1/8
Q:1/4=130
M:3/4
K:D
V:1 treble 
V:2 treble 
V:3 treble 
V:4 treble 
V:5 bass 
V:6 bass 
V:1
 [A,A]2 | D2 E2 F2 | G2 F2 E2 | F2 B2 F2 | A4 [A,A]2 | D2 E2 F2 | G2 F2 E2 | F2 B2 F2 | A4 A2 | %9
w: 1.~A|Sav- ior who|died our sal-|va- tion to|win, A|Sav- ior who|knows how to|save us from|sin— Yes,|
w: 2.~A|Shep- herd who|giv- eth His|life for the|sheep, A|Shep- herd both|might- y to|save and to|keep— Yes,|
w: 3.~A|Pi- lot who|know- eth the|dan- gers at|hand, A|Pi- lot who|bring- eth all|ve- sels to|land— Yes,|
w: 4.~A|Shel- ter from|tem- pest, from|wind and from|storm, A|Shel- ter from|judg- ment, a|Shel- ter from|harm— Yes,|
 d2 c2 B2 | A2 F2 E2 | D2 D2 D2 | D4 D2 | F2 E2 B,2 | F2 E2 B2 |[M:4/4] A6 x4 || %16
w: He is the|Sav- ior, the|Sav- ior we|need, And|He is a|Sav- ior in-|deed!|
w: this is the|Shep- herd, the|Shep- herd we|need, And|He is a|Shep- herd in-|deed!|
w: this is the|Pi- lot, the|Pi- lot we|need, And|He is a|Pi- lot in-|deed!|
w: this is the|Shel- ter, the|Shel- ter we|need, And|He is a|Shel- ter in-|deed!|
[Q:1/4=105]"^Refrain" Bc | (z2 c)B x6 | (z2 [Gc])[GA] x6 | [Af]2 [Ad][GB] [GA] [Ge]3 | [Fd]6 |] %21
w: |||||
w: |||||
w: Is He|* yours?|* Is|He yours? Is this Sav-|ior,|
w: |||||
V:2
 x2 | x6 | x6 | x6 | x6 | x6 | x6 | x6 | x6 | x6 | x6 | x6 | x6 | x6 | x6 |[M:4/4] x10 || x2 | %17
 (d6 AG F2) | (e6 A^G =G2) | x8 | x6 |] %21
V:3
 z2 | [A,DF]6 | [A,CE]2 [A,DF]2 [A,CG]2 | [A,DF]6 | [CEG]4 z2 | [A,DF]6 | [A,CE]2 [A,DF]2 [A,CG]2 | %7
 [A,DF]6 | [CEG]4 z2 | [FAd]2 [EGc]2 [DFB]2 | [DFA]2 [A,DF]2 [A,CE]2 | [B,D]2 [A,=CD]2 [A,CD]2 | %12
 [G,B,D]4 [B,D]2 | [^A,B,D]6 | [^G,B,D]4 [DE^G]2 |[M:4/4] A6 ([^B,F]2 [CG]2) || x2 | x10 | x10 | %19
 x8 | x6 |] %21
V:4
 x2 | x6 | x6 | x6 | x6 | x6 | x6 | x6 | x6 | x6 | x6 | x6 | x6 | x6 | x6 |[M:4/4] [CE]2 x8 || x2 | %17
 x10 | x10 | x8 | x6 |] %21
V:5
 G,,2 | D,2 E,2 F,2 | G,2 F,2 E,2 | F,2 B,2 F,2 | A,4 A,,2 | D,2 E,2 F,2 | G,2 F,2 E,2 | %7
w: ~|~ ~ ~|~ ~ ~|~ ~ ~|~ ~|~ ~ ~|~ ~ ~|
 F,2 B,2 F,2 | A,4 A,2 | D2 A,2 B,2 | F,2 D,2 A,,2 | [B,,F,]2 [F,,D,]2 [F,,D,]2 | %12
w: ~ ~ ~|~ ~|~ ~ ~|~ ~ ~|~ ~ ~|
 [G,,D,]4 [G,,G,]2 | F,2 E,2 B,,2 | F,2 E,2 [B,,E,]2 |[M:4/4] (E,2 ^D,2 E,2) x4 || z2 | %17
w: ~ ~|~ ~ ~|~ ~ ~|~ * *||
 z2 [D,F,][D,B,] [D,A,]2 z2 x2 | z2 [A,C][A,D] [A,E]2 [A,E][A,C] x2 | %19
w: Is He yours?|Is He yours? * *|
 [D,D]2 [F,D][G,D] [A,C] [A,C]3 | [D,D]6 |] %21
w: ||
V:6
 x2 | x6 | x6 | x6 | x6 | x6 | x6 | x6 | x6 | x6 | x6 | x6 | x6 | x6 | x6 |[M:4/4] A,,6 x4 || x2 | %17
 x10 | x10 | x8 | x6 |] %21

